X:0370
M:6/8
L:1/8
Q:3/8=120
K:G
d|BAG G2D|GAG B2d|BAG G2D| EFE E2d|\
  BAG G2D|GAG Bcd|efg dBG|TA3  G2:|
  Bcd ded|ded def|gdB dBG| A3  G2:|

